X:1
T: Alexander's Birthday
N:
C:F. Caroso
S:Tune is Alta Vittoria
A:
O:
R:
M:4/4
K:C
I:speed 106
%W:     A1
% voice 1 (1 lines, 25 notes)
K:C
M:4/4
L:1/16
g2 f2 |e4 e2 d2 e2 c2 d2 e2 |f4 f2 e2 f4 g2 f2 |e4 d2 c2 d2 c2 d2 B2 |c12 g2 f2 |
%W:     A2
% voice 1 (1 lines, 23 notes)
e4 e2 d2 e2 c2 d2 e2 |f4 f2 e2 f4 g2 f2 |e4 d2 c2 d2 c2 d2 B2 |c12 _B2 c2 |
%W:   B1
% voice 1 (1 lines, 23 notes)
d4 d2 c2 d2 c2 d2 e2 |f4 f2 e2 f4 g2 f2 |e4 d2 c2 d2 c2 d2 B2 |c12 _B2 c2 |
%W:   B2
% voice 1 (1 lines, 23 notes)
d4 d2 c2 d2 c2 d2 e2 |f4 f2 e2 f4 g2 f2 |e4 d2 c2 d2 c2 d2 B2 |c12 F2 G2 |
%W:   C1
% voice 1 (1 lines, 16 notes)
A4 c4 f8 |e4 e2 d2 c2 _B2 A2 G2 |F4 c4 d8 |c12 F2 G2 |
%W:   C2
% voice 1 (1 lines, 16 notes)
A4 c4 f8 |e4 e2 d2 c2 _B2 A2 G2 |F4 c4 d8 |c12 B2 c2 |
%W:   D1
% voice 1 (1 lines, 23 notes)
d4 d2 c2 d2 c2 B2 A2 |d4 d2 c2 d4 g2 f2 |e4 d2 c2 d2 c2 d2 B2 |c12 B2 c2 |
%W:   D2
% voice 1 (1 lines, 21 notes)
d4 d2 c2 d2 c2 B2 A2 |d4 d2 c2 d4 g2 f2 |e4 d2 c2 d2 c2 d2 B2 |c12 ||
